www/assets/icons/next_week.svg

<svg xmlns="http://www.w3.org/2000/svg" width="24" height="24" viewBox="0 0 24 24" fill='currentColor'><path d="M20 6.5h-4v-2c0-.55-.22-1.05-.59-1.41-.36-.37-.86-.59-1.41-.59h-4c-1.1 0-2 .9-2 2v2H4c-1.1 0-2 .9-2 2v11c0 1.1.9 2 2 2h16c1.1 0 2-.9 2-2v-11c0-1.1-.9-2-2-2m-10-2h4v2h-4zM11 18l-1-1 3-3-3-3 1-1 4 4z"/></svg>

<svg width="24" height="24" viewBox="0 0 24 24" xmlns="http://www.w3.org/2000/svg" fill='currentColor'><path d="M20 6.5H16V4.5C16 3.95 15.78 3.45 15.41 3.09C15.05 2.72 14.55 2.5 14 2.5H10C8.9 2.5 8 3.4 8 4.5V6.5H4C2.9 6.5 2 7.4 2 8.5V19.5C2 20.6 2.9 21.5 4 21.5H20C21.1 21.5 22 20.6 22 19.5V8.5C22 7.4 21.1 6.5 20 6.5ZM10 4.5H14V6.5H10V4.5ZM11 18L10 17L13 14L10 11L11 10L15 14L11 18Z"/></svg>
